32x32/apps/AdobeFlash.svg

<svg height="32" width="32" xmlns="http://www.w3.org/2000/svg"><rect fill="#c2352a" height="28" rx="1.5" width="28" x="2" y="2"/><path d="m3.5 2c-.831 0-1.5.669-1.5 1.5v1c0-.831.669-1.5 1.5-1.5h25c.831 0 1.5.669 1.5 1.5v-1c0-.831-.669-1.5-1.5-1.5z" fill="#fff" opacity=".1"/><path d="m2 28.5v1c0 .831.669 1.5 1.5 1.5h25c.831 0 1.5-.669 1.5-1.5v-1c0 .831-.669 1.5-1.5 1.5h-25c-.831 0-1.5-.669-1.5-1.5zm22-21.494v4.024c-4.017.07-5.004 3.988-5.004 3.988h3.03v4.023h-4.698c-2.826 8.719-9.328 7.941-9.328 7.941v-4.022s4.126.765 6.23-6.918c2.63-9.611 9.77-9.036 9.77-9.036z" opacity=".2"/><path d="m24 6.007v4.023c-4.017.07-5.004 3.988-5.004 3.988h3.03v4.023h-4.698c-2.826 8.719-9.328 7.941-9.328 7.941v-4.022s4.126.765 6.23-6.917c2.63-9.613 9.77-9.037 9.77-9.037z" fill="#fff"/></svg>

<svg xmlns="http://www.w3.org/2000/svg" width="32" height="32" version="1"><rect fill="#c2352a" width="28" height="28" x="2" y="2" rx="1.5" ry="1.5"/><path fill="#fff" opacity=".1" d="M3.5 2C2.669 2 2 2.669 2 3.5v1C2 3.669 2.669 3 3.5 3h25c.831 0 1.5.669 1.5 1.5v-1c0-.831-.669-1.5-1.5-1.5h-25z"/><path opacity=".2" d="M2 28.5v1c0 .831.669 1.5 1.5 1.5h25c.831 0 1.5-.669 1.5-1.5v-1c0 .831-.669 1.5-1.5 1.5h-25c-.831 0-1.5-.669-1.5-1.5zM24 7.006v4.024c-4.017.07-5.004 3.988-5.004 3.988h3.03v4.023h-4.698C14.502 27.76 8 26.982 8 26.982V22.96s4.126.765 6.23-6.918C16.86 6.431 24 7.006 24 7.006z"/><path fill="#fff" d="M24 6.007v4.023c-4.017.07-5.004 3.988-5.004 3.988h3.03v4.023h-4.698C14.502 26.76 8 25.982 8 25.982V21.96s4.126.765 6.23-6.917C16.86 5.43 24 6.006 24 6.006z"/></svg>
